X:26
T:Moneymusk
T:Monymusk
R:fling
H:See also #27
D:Ois\'in Mac Diarmada
Z:id:hn-hf-26
M:C|
L:1/8
K:A
e2 (3cBA eAcf | e2 (3cBA Bcdf | e2 (3cBA eAce |1 d<fBd cAAc :|2 d<fBd cAA2 ||
|: aece fece | aece dcB2 |1 aece fece |
dcBd cAA2 :|2 (3aba (3gag (3fgf e2 | defg abaf ||

